fill/svg/unlock.svg

<svg xmlns="http://www.w3.org/2000/svg" viewBox="0 0 24 24"><g data-name="Layer 2"><g data-name="unlock"><rect width="24" height="24" opacity="0"/><circle cx="12" cy="15" r="1"/><path d="M17 8h-7V6a2 2 0 0 1 4 0 1 1 0 0 0 2 0 4 4 0 0 0-8 0v2H7a3 3 0 0 0-3 3v8a3 3 0 0 0 3 3h10a3 3 0 0 0 3-3v-8a3 3 0 0 0-3-3zm-5 10a3 3 0 1 1 3-3 3 3 0 0 1-3 3z"/></g></g></svg>

<svg xmlns="http://www.w3.org/2000/svg" viewBox="0 0 24 24"><defs><style>.cls-1{fill:#fff;opacity:0;}.cls-2{fill:#231f20;}</style></defs><title>unlock</title><g id="Layer_2" data-name="Layer 2"><g id="unlock"><g id="unlock-2" data-name="unlock"><rect class="cls-1" width="24" height="24"/><circle class="cls-2" cx="12" cy="15" r="1"/><path class="cls-2" d="M17,8H10V6a2,2,0,0,1,4,0,1,1,0,0,0,2,0A4,4,0,0,0,8,6V8H7a3,3,0,0,0-3,3v8a3,3,0,0,0,3,3H17a3,3,0,0,0,3-3V11A3,3,0,0,0,17,8ZM12,18a3,3,0,1,1,3-3A3,3,0,0,1,12,18Z"/></g></g></g></svg>
